packages/core/src/svgs/lcx.svg

<svg width="24" height="24" viewBox="0 0 24 24" fill="none" xmlns="http://www.w3.org/2000/svg">
<g clip-path="url(#clip0_31_13060)">
<path d="M0 0H24V24H0V0Z" fill="#5E5E5E"/>
<path d="M8.14282 7.28592V5.14307L12 8.96164L15.8571 5.14307V7.28592L12 11.1431L8.14282 7.28592ZM8.14282 16.7145V18.8574L12 15.0388L15.8571 18.8574V16.7145L12 12.8574L8.14282 16.7145ZM16.7143 15.8574H18.8571L15.0385 12.0002L18.8571 8.14307H16.7143L12.8571 12.0002L16.7143 15.8574ZM7.28568 15.8574H5.14282L8.96139 12.0002L5.14282 8.14307H7.28568L11.1428 12.0002L7.28568 15.8574Z" fill="white"/>
</g>
<defs>
<clipPath id="clip0_31_13060">
<rect width="24" height="24" fill="white"/>
</clipPath>
</defs>
</svg>

<svg xmlns="http://www.w3.org/2000/svg" width="24" height="24" fill="none" viewBox="0 0 24 24"><g clip-path="url(#a)"><path fill="#5E5E5E" d="M0 0h24v24H0z"/><path fill="#fff" d="M8.143 7.286V5.143L12 8.962l3.857-3.819v2.143L12 11.143zm0 9.429v2.142L12 15.04l3.857 3.818v-2.142L12 12.857zm8.571-.858h2.143L15.04 12l3.818-3.857h-2.143L12.857 12zm-9.428 0H5.143L8.96 12 5.143 8.143h2.143L11.143 12z"/></g><defs><clipPath id="a"><path fill="#fff" d="M0 0h24v24H0z"/></clipPath></defs></svg>
